X: 133
T: Xiu hebao
L: 1/8
M: 3/8
K: G
F A B [I:setbarnb 1]| 
G F E | 
d e g | 
D3 | 
d d e | 
g d B | 
d G B | 
A3 | 
d F E | 
d d e | 
F A B | 
G3 | 
A A B | 
d F E | 
G D E | 
D3 |]

@@@ Tune index: 9007
